gtk-icons/Papirus-GTK/16x16/mimetypes/image-svg+xml-compressed.svg

<?xml version="1.0" encoding="UTF-8" standalone="no"?>
<svg
   xmlns:dc="http://purl.org/dc/elements/1.1/"
   xmlns:cc="http://creativecommons.org/ns#"
   xmlns:rdf="http://www.w3.org/1999/02/22-rdf-syntax-ns#"
   xmlns:svg="http://www.w3.org/2000/svg"
   xmlns="http://www.w3.org/2000/svg"
   xmlns:sodipodi="http://sodipodi.sourceforge.net/DTD/sodipodi-0.dtd"
   xmlns:inkscape="http://www.inkscape.org/namespaces/inkscape"
   width="16px"
   height="16px"
   viewBox="0 0 16 16"
   version="1.1"
   id="svg2"
   inkscape:version="0.91 r"
   sodipodi:docname="image-svg+xml-compressed.svg">
  <metadata
     id="metadata31">
    <rdf:RDF>
      <cc:Work
         rdf:about="">
        <dc:format>image/svg+xml</dc:format>
        <dc:type
           rdf:resource="http://purl.org/dc/dcmitype/StillImage" />
      </cc:Work>
    </rdf:RDF>
  </metadata>
  <defs
     id="defs29" />
  <sodipodi:namedview
     pagecolor="#ffffff"
     bordercolor="#666666"
     borderopacity="1"
     objecttolerance="10"
     gridtolerance="10"
     guidetolerance="10"
     inkscape:pageopacity="0"
     inkscape:pageshadow="2"
     inkscape:window-width="1535"
     inkscape:window-height="876"
     id="namedview27"
     showgrid="false"
     inkscape:zoom="14.75"
     inkscape:cx="-4.0338983"
     inkscape:cy="8"
     inkscape:window-x="65"
     inkscape:window-y="24"
     inkscape:window-maximized="1"
     inkscape:current-layer="svg2" />
  <g
     id="surface1"
     transform="translate(-0.5,0)">
    <path
       style="fill:#bd9966;fill-opacity:1;fill-rule:nonzero;stroke:none"
       d="m 14.5,13.332031 0,-10.664062 C 14.5,2.296875 14.210938,2 13.851562,2 L 2.148438,2 C 1.789062,2 1.5,2.296875 1.5,2.667969 l 0,10.664062 C 1.5,13.703125 1.789062,14 2.148438,14 l 11.703124,0 C 14.210938,14 14.5,13.703125 14.5,13.332031 Z m 0,0"
       id="path5"
       inkscape:connector-curvature="0" />
    <path
       style="fill:#000000;fill-opacity:0.2;fill-rule:nonzero;stroke:none"
       d="m 7.5,2 0,3.25 c 0,0.34375 0.28125,0.5 0.625,0.5 C 8.46875,5.75 8.5,5.59375 8.5,5.25 L 8.5,2 Z m 0,0"
       id="path7"
       inkscape:connector-curvature="0" />
    <path
       style="fill:#ffffff;fill-opacity:0.50196096;fill-rule:nonzero;stroke:none"
       d="m 7.75,2.25 0,0.25 0.25,0 0,-0.25 z m 0,0.5 L 7.75,3 8,3 8,2.75 Z m 0,0.5 0,0.25 0.25,0 0,-0.25 z m 0,0.5 L 7.75,4 8,4 8,3.75 Z m 0,0.5 0,0.25 0.25,0 0,-0.25 z m 0,0.5 L 7.75,5 8,5 8,4.75 Z m 0,0.5 C 7.75,5.375 7.863281,5.5 8,5.5 L 8,5.25 Z m 0,0"
       id="path9"
       inkscape:connector-curvature="0" />
    <path
       style="fill:#000000;fill-opacity:0.2;fill-rule:nonzero;stroke:none"
       d="M 8,5.75 C 7.585938,5.75 7.25,6.085938 7.25,6.5 l 0,1.5 C 7.25,8.414062 7.585938,8.75 8,8.75 8.414062,8.75 8.75,8.414062 8.75,8 l 0,-1.5 C 8.75,6.085938 8.414062,5.75 8,5.75 Z m 0,0.5 C 8.136719,6.25 8.25,6.351562 8.25,6.5 8.25,6.625 8.136719,6.75 8,6.75 7.863281,6.75 7.75,6.625 7.75,6.5 7.75,6.351562 7.863281,6.25 8,6.25 Z m 0,1 c 0.136719,0 0.25,0.132812 0.25,0.332031 l 0,0.335938 C 8.25,8.082031 8.136719,8.25 8,8.25 7.863281,8.25 7.75,8.082031 7.75,7.917969 l 0,-0.335938 C 7.75,7.382812 7.863281,7.25 8,7.25 Z m 0,0"
       id="path11"
       inkscape:connector-curvature="0" />
    <path
       style="fill:#f5f5f5;fill-opacity:1;fill-rule:nonzero;stroke:none"
       d="M 8,5.5 C 7.585938,5.5 7.25,5.835938 7.25,6.25 l 0,1.5 C 7.25,8.164062 7.585938,8.5 8,8.5 8.414062,8.5 8.75,8.164062 8.75,7.75 l 0,-1.5 C 8.75,5.835938 8.414062,5.5 8,5.5 Z M 8,6 C 8.136719,6 8.25,6.101562 8.25,6.25 8.25,6.375 8.136719,6.5 8,6.5 7.863281,6.5 7.75,6.375 7.75,6.25 7.75,6.101562 7.863281,6 8,6 Z m 0,1 c 0.136719,0 0.25,0.132812 0.25,0.332031 l 0,0.335938 C 8.25,7.832031 8.136719,8 8,8 7.863281,8 7.75,7.832031 7.75,7.667969 l 0,-0.335938 C 7.75,7.132812 7.863281,7 8,7 Z m 0,0"
       id="path13"
       inkscape:connector-curvature="0" />
    <path
       style="fill:#000000;fill-opacity:0.30196102;fill-rule:nonzero;stroke:none"
       d="m 8,2 0,0.25 0.25,0 0,-0.25 z m 0,0.5 0,0.25 0.25,0 0,-0.25 z m 0,0.5 0,0.25 0.25,0 0,-0.25 z m 0,0.5 0,0.25 0.25,0 0,-0.25 z m 0,0.5 0,0.25 0.25,0 0,-0.25 z m 0,0.5 0,0.25 0.25,0 0,-0.25 z m 0,0.5 0,0.25 0.25,0 0,-0.25 z m 0,0"
       id="path15"
       inkscape:connector-curvature="0" />
    <path
       style="fill:#ffffff;fill-opacity:1;fill-rule:nonzero;stroke:none"
       d="M 5.25,7.5 C 5.25,8.191406 4.691406,8.75 4,8.75 3.308594,8.75 2.75,8.191406 2.75,7.5 2.75,6.808594 3.308594,6.25 4,6.25 c 0.691406,0 1.25,0.558594 1.25,1.25 z m 0,0"
       id="path17"
       inkscape:connector-curvature="0" />
    <path
       style="fill:none;stroke:#ffffff;stroke-width:3;stroke-linecap:butt;stroke-linejoin:miter;stroke-miterlimit:4;stroke-opacity:1"
       d="M 16,29 28,44 47,40"
       transform="scale(0.25,0.25)"
       id="path19"
       inkscape:connector-curvature="0" />
    <path
       style="fill:#ffffff;fill-opacity:0.10196102;fill-rule:nonzero;stroke:none"
       d="M 2.148438,2 C 1.789062,2 1.5,2.296875 1.5,2.667969 l 0,0.5 C 1.5,2.796875 1.789062,2.5 2.148438,2.5 l 11.703124,0 C 14.210938,2.5 14.5,2.796875 14.5,3.167969 l 0,-0.5 C 14.5,2.296875 14.210938,2 13.851562,2 Z m 0,0"
       id="path21"
       inkscape:connector-curvature="0" />
    <path
       style="fill:#ffffff;fill-opacity:1;fill-rule:nonzero;stroke:none"
       d="m 13,10 c 0,0.691406 -0.558594,1.25 -1.25,1.25 -0.691406,0 -1.25,-0.558594 -1.25,-1.25 0,-0.691406 0.558594,-1.25 1.25,-1.25 0.691406,0 1.25,0.558594 1.25,1.25 z m 0,0"
       id="path23"
       inkscape:connector-curvature="0" />
    <path
       style="fill:#ffffff;fill-opacity:1;fill-rule:nonzero;stroke:none"
       d="M 8.25,10.75 C 8.25,11.441406 7.691406,12 7,12 6.308594,12 5.75,11.441406 5.75,10.75 5.75,10.058594 6.308594,9.5 7,9.5 c 0.691406,0 1.25,0.558594 1.25,1.25 z m 0,0"
       id="path25"
       inkscape:connector-curvature="0" />
  </g>
</svg>

<?xml version="1.0" encoding="UTF-8" standalone="no"?>
<svg id="svg2" xmlns:rdf="http://www.w3.org/1999/02/22-rdf-syntax-ns#" xmlns="http://www.w3.org/2000/svg" height="16px" width="16px" version="1.1" xmlns:cc="http://creativecommons.org/ns#" xmlns:dc="http://purl.org/dc/elements/1.1/" viewBox="0 0 16 16">
 <metadata id="metadata31">
  <rdf:RDF>
   <cc:Work rdf:about="">
    <dc:format>image/svg+xml</dc:format>
    <dc:type rdf:resource="http://purl.org/dc/dcmitype/StillImage"/>
   </cc:Work>
  </rdf:RDF>
 </metadata>
 <g id="surface1" transform="translate(-.5)">
  <path id="path5" d="m14.5 13.332v-10.664c0-0.3711-0.289-0.668-0.648-0.668h-11.704c-0.3589 0-0.648 0.2969-0.648 0.668v10.664c0 0.371 0.2891 0.668 0.6484 0.668h11.703c0.36 0 0.649-0.297 0.649-0.668z" fill="#bd9966"/>
  <path id="path7" d="m7.5 2v3.25c0 0.34375 0.28125 0.5 0.625 0.5 0.3438 0 0.375-0.1562 0.375-0.5v-3.25z" fill-opacity=".2"/>
  <path id="path9" d="m7.75 2.25v0.25h0.25v-0.25zm0 0.5v0.25h0.25v-0.25zm0 0.5v0.25h0.25v-0.25zm0 0.5v0.25h0.25v-0.25zm0 0.5v0.25h0.25v-0.25zm0 0.5v0.25h0.25v-0.25zm0 0.5c0 0.125 0.1133 0.25 0.25 0.25v-0.25z" fill-opacity=".50196" fill="#fff"/>
  <path id="path11" d="m8 5.75c-0.4141 0-0.75 0.3359-0.75 0.75v1.5c0 0.4141 0.3359 0.75 0.75 0.75s0.75-0.3359 0.75-0.75v-1.5c0-0.4141-0.3359-0.75-0.75-0.75zm0 0.5c0.1367 0 0.25 0.1016 0.25 0.25 0 0.125-0.1133 0.25-0.25 0.25s-0.25-0.125-0.25-0.25c0-0.1484 0.1133-0.25 0.25-0.25zm0 1c0.13672 0 0.25 0.13281 0.25 0.33203v0.33594c0 0.1641-0.1133 0.3321-0.25 0.3321s-0.25-0.168-0.25-0.332v-0.33594c0-0.1993 0.1133-0.3321 0.25-0.3321z" fill-opacity=".2"/>
  <path id="path13" d="m8 5.5c-0.4141 0-0.75 0.3359-0.75 0.75v1.5c0 0.4141 0.3359 0.75 0.75 0.75s0.75-0.3359 0.75-0.75v-1.5c0-0.4141-0.3359-0.75-0.75-0.75zm0 0.5c0.1367 0 0.25 0.1016 0.25 0.25 0 0.125-0.1133 0.25-0.25 0.25s-0.25-0.125-0.25-0.25c0-0.1484 0.1133-0.25 0.25-0.25zm0 1c0.13672 0 0.25 0.13281 0.25 0.33203v0.33594c0 0.1641-0.1133 0.3321-0.25 0.3321s-0.25-0.168-0.25-0.332v-0.33594c0-0.1993 0.1133-0.3321 0.25-0.3321z" fill="#f5f5f5"/>
  <path id="path15" d="m8 2v0.25h0.25v-0.25zm0 0.5v0.25h0.25v-0.25zm0 0.5v0.25h0.25v-0.25zm0 0.5v0.25h0.25v-0.25zm0 0.5v0.25h0.25v-0.25zm0 0.5v0.25h0.25v-0.25zm0 0.5v0.25h0.25v-0.25z" fill-opacity=".30196"/>
  <path id="path17" d="m5.25 7.5c0 0.6914-0.5586 1.25-1.25 1.25s-1.25-0.5586-1.25-1.25 0.5586-1.25 1.25-1.25c0.69141 0 1.25 0.55859 1.25 1.25z" fill="#fff"/>
  <path id="path19" d="m16 29 12 15 19-4" transform="scale(.25)" stroke="#fff" stroke-width="3" fill="none"/>
  <path id="path21" d="m2.1484 2c-0.3593 0-0.6484 0.2969-0.6484 0.668v0.5c0-0.3711 0.2891-0.668 0.6484-0.668h11.703c0.36 0 0.649 0.2969 0.649 0.668v-0.5c0-0.3711-0.289-0.668-0.648-0.668z" fill-opacity=".10196" fill="#fff"/>
  <path id="path23" d="m13 10c0 0.69141-0.55859 1.25-1.25 1.25s-1.25-0.55859-1.25-1.25 0.55859-1.25 1.25-1.25 1.25 0.55859 1.25 1.25z" fill="#fff"/>
  <path id="path25" d="m8.25 10.75c0 0.691-0.5586 1.25-1.25 1.25s-1.25-0.559-1.25-1.25 0.5586-1.25 1.25-1.25c0.69141 0 1.25 0.55859 1.25 1.25z" fill="#fff"/>
 </g>
</svg>
